icons/fluent/fluent_picture_in_picture_exit_filled.svg

<?xml version="1.0" standalone="no"?>
<svg xmlns="http://www.w3.org/2000/svg" width="24" height="24" viewBox="0 0 24 24" fill="#000000">
<path d="M10 11C11.1046 11 12 10.1046 12 9V4C12 2.89543 11.1046 2 10 2H3C1.89543 2 1 2.89543 1 4V9C1 9.75939 1.42323 10.4199 2.04668 10.7586C2.33007 10.9126 2.65482 11 3 11H10ZM10 12H3C2.64936 12 2.31278 11.9398 2 11.8293V17.75C2 19.5449 3.45507 21 5.25 21H18.75C20.5449 21 22 19.5449 22 17.75V8.25C22 6.45508 20.5449 5 18.75 5H13V9C13 10.6569 11.6569 12 10 12ZM14.25 16H15.9393L13.2197 13.2803C12.9268 12.9874 12.9268 12.5126 13.2197 12.2197C13.5126 11.9268 13.9874 11.9268 14.2803 12.2197L17 14.9393V13.25C17 12.8358 17.3358 12.5 17.75 12.5C18.1642 12.5 18.5 12.8358 18.5 13.25V16.75C18.5 17.1642 18.1642 17.5 17.75 17.5H14.25C13.8358 17.5 13.5 17.1642 13.5 16.75C13.5 16.3358 13.8358 16 14.25 16Z" fill="#000000"/>
</svg>

<svg viewBox="0 0 24 24" fill="currentColor" width="32" height="32" xmlns="http://www.w3.org/2000/svg" xmlns:xlink="http://www.w3.org/1999/xlink">
    <path d="M10 11a2 2 0 0 0 2-2V4a2 2 0 0 0-2-2H3a2 2 0 0 0-2 2v5a2 2 0 0 0 2 2zM10 12H3c-0.35 0-0.687-0.06-1-0.17v5.92A3.25 3.25 0 0 0 5.25 21h13.5A3.25 3.25 0 0 0 22 17.75v-9.5A3.25 3.25 0 0 0 18.75 5H13v4a3 3 0 0 1-3 3M17.75 14h-1.69l2.72 2.72a0.75 0.75 0 1 1-1.06 1.06L15 15.06v1.69a0.75 0.75 0 0 1-1.5 0v-3.5c0-0.41 0.34-0.75 0.75-0.75h3.5a0.75 0.75 0 0 1 0 1.5" />
</svg>
